new-landing/public/images/logo-white.svg

<?xml version="1.0" encoding="UTF-8"?>
<svg id="Layer_1" xmlns="http://www.w3.org/2000/svg" version="1.1" viewBox="320 840 1340 330" width="180" height="44">
  <!-- Generator: Adobe Illustrator 30.1.0, SVG Export Plug-In . SVG Version: 2.1.1 Build 136)  -->
  <defs>
    <style>
      .st0 {
        fill: #02f8a2;
      }

      .st1 {
        fill: #fff;
      }
    </style>
  </defs>
  <g id="logo">
    <g id="icon">
      <path class="st1" d="M436.54,1136.08c-8.45,0-15.33-6.88-15.33-15.33v-79.3c0-8.47-6.86-15.33-15.33-15.33h-53.35c-8.45,0-15.33-6.88-15.33-15.33v-63.57c0-8.45,6.88-15.33,15.33-15.33h53.35c8.47,0,15.33-6.86,15.33-15.33v-37.3c0-8.45,6.88-15.33,15.33-15.33h47.52c8.45,0,15.33,6.88,15.33,15.33v47.52c0,8.45-6.88,15.33-15.33,15.33h-37.3c-8.47,0-15.33,6.86-15.33,15.33v43.12c0,8.47,6.86,15.33,15.33,15.33h69.08c8.47,0,15.33-6.86,15.33-15.33v-105.26c0-8.45,6.88-15.33,15.33-15.33h115.48c8.45,0,15.33,6.88,15.33,15.33v115.48c0,8.45-6.88,15.33-15.33,15.33h-105.26c-8.47,0-15.33,6.86-15.33,15.33v79.3c0,8.45-6.88,15.33-15.33,15.33h-89.52Z"/>
    </g>
    <g id="text">
      <path class="st1" d="M743.73,956.01v88.53c0,6.57,5.33,11.9,11.9,11.9h70.34c3.68,0,8.59-3.93,10.8-7.12v16.64c0,3.28-2.66,5.95-5.95,5.95h-74.55c-3.27,0-5.93,2.64-5.95,5.91-.02,5.18-.05,12.67-.05,17.86,0,3.28,2.67,5.93,5.95,5.93h91.12c13.14,0,23.79-10.65,23.79-23.79v-125.31c0-11.21-9.08-20.29-20.29-20.29h-83.33c-13.14,0-23.79,10.65-23.79,23.79ZM826.62,1026.49h-38.39c-5.6,0-10.14-4.54-10.14-10.14v-44.03c0-5.6,4.54-10.14,10.14-10.14h38.39c5.6,0,10.14,4.54,10.14,10.14v44.03c0,5.6-4.54,10.14-10.14,10.14Z"/>
      <path class="st1" d="M990.49,932.22h-73.43c-13.14,0-23.79,10.65-23.79,23.79v76.64c0,13.14,10.65,23.79,23.79,23.79h93.45c3.28,0,5.94-2.66,5.94-5.94v-18.06c0-3.28-2.66-5.95-5.94-5.95-16.14,0-60.63,0-76.92,0-3.28,0-5.95-2.66-5.95-5.95v-7.26c0-3.28,2.66-5.95,5.95-5.95h53.05s9.02,0,9.02,0c13.14,0,23.79-10.65,23.79-23.79v-27.54c0-13.14-10.65-23.79-23.79-23.79h-5.18ZM979.38,982.55h-45.8c-3.28,0-5.95-2.66-5.95-5.95v-8.48c0-3.28,2.66-5.95,5.95-5.95h45.8c3.28,0,5.95,2.66,5.95,5.95v8.48c0,3.28-2.66,5.95-5.95,5.95Z"/>
      <path class="st1" d="M1139.05,932.22h-73.68c-13.13,0-23.78,10.65-23.78,23.78v94.49c0,3.28,2.66,5.95,5.95,5.95h22.47c3.28,0,5.95-2.66,5.95-5.95v-76.43c0-6.57,5.32-11.89,11.89-11.89h33.91c6.57,0,11.89,5.32,11.89,11.89v76.43c0,3.28,2.66,5.95,5.95,5.95h22.47c3.28,0,5.95-2.66,5.95-5.95v-94.49c0-13.13-10.65-23.78-23.78-23.78h-5.18Z"/>
      <path class="st1" d="M1287.35,932.22h-73.43c-13.14,0-23.79,10.65-23.79,23.79v76.64c0,13.14,10.65,23.79,23.79,23.79h93.45c3.28,0,5.94-2.66,5.94-5.94v-18.06c0-3.28-2.66-5.95-5.94-5.95-16.14,0-60.63,0-76.92,0-3.28,0-5.95-2.66-5.95-5.95v-7.26c0-3.28,2.66-5.95,5.95-5.95h53.05s9.02,0,9.02,0c13.14,0,23.79-10.65,23.79-23.79v-27.54c0-13.14-10.65-23.79-23.79-23.79h-5.18ZM1276.25,982.55h-45.8c-3.28,0-5.95-2.66-5.95-5.95v-8.48c0-3.28,2.66-5.95,5.95-5.95h45.8c3.28,0,5.95,2.66,5.95,5.95v8.48c0,3.28-2.66,5.95-5.95,5.95Z"/>
      <path class="st1" d="M1456.26,953.92c.11-.11.07-9.34.04-15.7-.02-3.27-2.67-5.9-5.94-5.9h-105.98c-3.29,0-5.95,2.66-5.95,5.95v18.06c0,3.28,2.66,5.94,5.94,5.94h65.25l-65.79,62.85c-1.96,1.96-5.4,5.65-5.4,8.84v16.64c0,3.28,2.66,5.94,5.94,5.94h105.94c3.29,0,5.95-2.66,5.95-5.95v-18.05c0-3.29-2.66-5.95-5.95-5.95h-65s65.05-62.6,65.05-62.6c3.19-3.19,5.89-6.87,5.89-10.07Z"/>
      <g>
        <path class="st1" d="M1506.88,932.26h-22.48c-3.29,0-5.95,2.66-5.95,5.95v112.33c0,3.27,2.67,5.94,5.94,5.94h22.48c3.27,0,5.94-2.67,5.94-5.94v-112.33c0-3.27-2.67-5.94-5.94-5.94Z"/>
        <path class="st0" d="M1484.29,890.92h22.48c3.28,0,5.94,2.66,5.94,5.94v18.55c0,3.28-2.66,5.94-5.94,5.94h-22.48c-3.28,0-5.94-2.66-5.94-5.94v-18.55c0-3.28,2.66-5.94,5.94-5.94Z"/>
      </g>
      <path class="st1" d="M1534.9,956.1v76.65c0,13.14,10.65,23.78,23.78,23.78h80.33c13.14,0,23.78-10.65,23.78-23.78v-76.65c0-13.14-10.65-23.78-23.78-23.78h-80.33c-13.14,0-23.78,10.65-23.78,23.78ZM1616.54,1026.59h-35.37c-6.57,0-11.9-5.33-11.9-11.9v-40.53c0-6.57,5.33-11.9,11.9-11.9h35.37c6.57,0,11.9,5.33,11.9,11.9v40.53c0,6.57-5.33,11.9-11.9,11.9Z"/>
    </g>
  </g>
</svg>

<?xml version="1.0" encoding="UTF-8" standalone="no"?>
<!DOCTYPE svg PUBLIC "-//W3C//DTD SVG 1.1//EN" "http://www.w3.org/Graphics/SVG/1.1/DTD/svg11.dtd">
<svg width="100%" height="100%" viewBox="0 0 180 44" version="1.1" xmlns="http://www.w3.org/2000/svg" xmlns:xlink="http://www.w3.org/1999/xlink" xml:space="preserve" xmlns:serif="http://www.serif.com/" style="fill-rule:evenodd;clip-rule:evenodd;stroke-linejoin:round;stroke-miterlimit:2;">
    <g id="logo" transform="matrix(0.133333,0,0,0.133333,-42,-112)">
        <g id="icon">
            <path d="M436.54,1136.08C428.09,1136.08 421.21,1129.2 421.21,1120.75L421.21,1041.45C421.21,1032.98 414.35,1026.12 405.88,1026.12L352.53,1026.12C344.08,1026.12 337.2,1019.24 337.2,1010.79L337.2,947.22C337.2,938.77 344.08,931.89 352.53,931.89L405.88,931.89C414.35,931.89 421.21,925.03 421.21,916.56L421.21,879.26C421.21,870.81 428.09,863.93 436.54,863.93L484.06,863.93C492.51,863.93 499.39,870.81 499.39,879.26L499.39,926.78C499.39,935.23 492.51,942.11 484.06,942.11L446.76,942.11C438.29,942.11 431.43,948.97 431.43,957.44L431.43,1000.56C431.43,1009.03 438.29,1015.89 446.76,1015.89L515.84,1015.89C524.31,1015.89 531.17,1009.03 531.17,1000.56L531.17,895.3C531.17,886.85 538.05,879.97 546.5,879.97L661.98,879.97C670.43,879.97 677.31,886.85 677.31,895.3L677.31,1010.78C677.31,1019.23 670.43,1026.11 661.98,1026.11L556.72,1026.11C548.25,1026.11 541.39,1032.97 541.39,1041.44L541.39,1120.74C541.39,1129.19 534.51,1136.07 526.06,1136.07L436.54,1136.07L436.54,1136.08Z" style="fill:white;fill-rule:nonzero;"/>
        </g>
        <g id="text">
            <path d="M743.73,956.01L743.73,1044.54C743.73,1051.11 749.06,1056.44 755.63,1056.44L825.97,1056.44C829.65,1056.44 834.56,1052.51 836.77,1049.32L836.77,1065.96C836.77,1069.24 834.11,1071.91 830.82,1071.91L756.27,1071.91C753,1071.91 750.34,1074.55 750.32,1077.82C750.3,1083 750.27,1090.49 750.27,1095.68C750.27,1098.96 752.94,1101.61 756.22,1101.61L847.34,1101.61C860.48,1101.61 871.13,1090.96 871.13,1077.82L871.13,952.51C871.13,941.3 862.05,932.22 850.84,932.22L767.51,932.22C754.37,932.22 743.72,942.87 743.72,956.01L743.73,956.01ZM826.62,1026.49L788.23,1026.49C782.63,1026.49 778.09,1021.95 778.09,1016.35L778.09,972.32C778.09,966.72 782.63,962.18 788.23,962.18L826.62,962.18C832.22,962.18 836.76,966.72 836.76,972.32L836.76,1016.35C836.76,1021.95 832.22,1026.49 826.62,1026.49Z" style="fill:white;fill-rule:nonzero;"/>
            <path d="M990.49,932.22L917.06,932.22C903.92,932.22 893.27,942.87 893.27,956.01L893.27,1032.65C893.27,1045.79 903.92,1056.44 917.06,1056.44L1010.51,1056.44C1013.79,1056.44 1016.45,1053.78 1016.45,1050.5L1016.45,1032.44C1016.45,1029.16 1013.79,1026.49 1010.51,1026.49L933.59,1026.49C930.31,1026.49 927.64,1023.83 927.64,1020.54L927.64,1013.28C927.64,1010 930.3,1007.33 933.59,1007.33L995.66,1007.33C1008.8,1007.33 1019.45,996.68 1019.45,983.54L1019.45,956C1019.45,942.86 1008.8,932.21 995.66,932.21L990.48,932.21L990.49,932.22ZM979.38,982.55L933.58,982.55C930.3,982.55 927.63,979.89 927.63,976.6L927.63,968.12C927.63,964.84 930.29,962.17 933.58,962.17L979.38,962.17C982.66,962.17 985.33,964.83 985.33,968.12L985.33,976.6C985.33,979.88 982.67,982.55 979.38,982.55Z" style="fill:white;fill-rule:nonzero;"/>
            <path d="M1144.24,932.22L1065.37,932.22C1052.24,932.22 1041.59,942.87 1041.59,956L1041.59,1050.49C1041.59,1053.77 1044.25,1056.44 1047.54,1056.44L1070.01,1056.44C1073.29,1056.44 1075.96,1053.78 1075.96,1050.49L1075.96,974.06C1075.96,967.49 1081.28,962.17 1087.85,962.17L1121.76,962.17C1128.33,962.17 1133.65,967.49 1133.65,974.06L1133.65,1050.49C1133.65,1053.77 1136.31,1056.44 1139.6,1056.44L1162.07,1056.44C1165.35,1056.44 1168.02,1053.78 1168.02,1050.49L1168.02,956C1168.02,942.87 1157.37,932.22 1144.24,932.22Z" style="fill:white;fill-rule:nonzero;"/>
            <path d="M1287.35,932.22L1213.92,932.22C1200.78,932.22 1190.13,942.87 1190.13,956.01L1190.13,1032.65C1190.13,1045.79 1200.78,1056.44 1213.92,1056.44L1307.37,1056.44C1310.65,1056.44 1313.31,1053.78 1313.31,1050.5L1313.31,1032.44C1313.31,1029.16 1310.65,1026.49 1307.37,1026.49L1230.45,1026.49C1227.17,1026.49 1224.5,1023.83 1224.5,1020.54L1224.5,1013.28C1224.5,1010 1227.16,1007.33 1230.45,1007.33L1292.52,1007.33C1305.66,1007.33 1316.31,996.68 1316.31,983.54L1316.31,956C1316.31,942.86 1305.66,932.21 1292.52,932.21L1287.34,932.21L1287.35,932.22ZM1276.25,982.55L1230.45,982.55C1227.17,982.55 1224.5,979.89 1224.5,976.6L1224.5,968.12C1224.5,964.84 1227.16,962.17 1230.45,962.17L1276.25,962.17C1279.53,962.17 1282.2,964.83 1282.2,968.12L1282.2,976.6C1282.2,979.88 1279.54,982.55 1276.25,982.55Z" style="fill:white;fill-rule:nonzero;"/>
            <path d="M1456.26,953.92C1456.37,953.81 1456.33,944.58 1456.3,938.22C1456.28,934.95 1453.63,932.32 1450.36,932.32L1344.38,932.32C1341.09,932.32 1338.43,934.98 1338.43,938.27L1338.43,956.33C1338.43,959.61 1341.09,962.27 1344.37,962.27L1409.62,962.27L1343.83,1025.12C1341.87,1027.08 1338.43,1030.77 1338.43,1033.96L1338.43,1050.6C1338.43,1053.88 1341.09,1056.54 1344.37,1056.54L1450.31,1056.54C1453.6,1056.54 1456.26,1053.88 1456.26,1050.59L1456.26,1032.54C1456.26,1029.25 1453.6,1026.59 1450.31,1026.59L1385.31,1026.59L1450.36,963.99C1453.55,960.8 1456.25,957.12 1456.25,953.92L1456.26,953.92Z" style="fill:white;fill-rule:nonzero;"/>
            <g>
                <path d="M1506.88,932.26L1484.4,932.26C1481.11,932.26 1478.45,934.92 1478.45,938.21L1478.45,1050.54C1478.45,1053.81 1481.12,1056.48 1484.39,1056.48L1506.87,1056.48C1510.14,1056.48 1512.81,1053.81 1512.81,1050.54L1512.81,938.21C1512.81,934.94 1510.14,932.27 1506.87,932.27L1506.88,932.26Z" style="fill:white;fill-rule:nonzero;"/>
                <path d="M1484.29,890.92L1506.77,890.92C1510.05,890.92 1512.71,893.58 1512.71,896.86L1512.71,915.41C1512.71,918.69 1510.05,921.35 1506.77,921.35L1484.29,921.35C1481.01,921.35 1478.35,918.69 1478.35,915.41L1478.35,896.86C1478.35,893.58 1481.01,890.92 1484.29,890.92Z" style="fill:rgb(2,248,162);fill-rule:nonzero;"/>
            </g>
            <path d="M1534.9,956.1L1534.9,1032.75C1534.9,1045.89 1545.55,1056.53 1558.68,1056.53L1639.01,1056.53C1652.15,1056.53 1662.79,1045.88 1662.79,1032.75L1662.79,956.1C1662.79,942.96 1652.14,932.32 1639.01,932.32L1558.68,932.32C1545.54,932.32 1534.9,942.97 1534.9,956.1ZM1616.54,1026.59L1581.17,1026.59C1574.6,1026.59 1569.27,1021.26 1569.27,1014.69L1569.27,974.16C1569.27,967.59 1574.6,962.26 1581.17,962.26L1616.54,962.26C1623.11,962.26 1628.44,967.59 1628.44,974.16L1628.44,1014.69C1628.44,1021.26 1623.11,1026.59 1616.54,1026.59Z" style="fill:white;fill-rule:nonzero;"/>
        </g>
        <g id="icon1" serif:id="icon" transform="matrix(0.977502,0,0,0.977502,3.545103,21.315459)">
            <path d="M442.79,1137.55C434.24,1137.55 427.29,1130.6 427.29,1122.05L427.29,1041.89C427.29,1033.33 420.35,1026.39 411.79,1026.39L357.87,1026.39C349.32,1026.39 342.37,1019.44 342.37,1010.89L342.37,946.64C342.37,938.09 349.32,931.14 357.87,931.14L411.79,931.14C420.35,931.14 427.29,924.2 427.29,915.64L427.29,877.94C427.29,869.39 434.24,862.44 442.79,862.44L490.82,862.44C499.37,862.44 506.32,869.39 506.32,877.94L506.32,925.97C506.32,934.52 499.37,941.47 490.82,941.47L453.12,941.47C444.56,941.47 437.62,948.41 437.62,956.97L437.62,1000.56C437.62,1009.12 444.56,1016.06 453.12,1016.06L522.95,1016.06C531.51,1016.06 538.45,1009.12 538.45,1000.56L538.45,894.16C538.45,885.61 545.4,878.66 553.95,878.66L670.68,878.66C679.23,878.66 686.18,885.61 686.18,894.16L686.18,1010.89C686.18,1019.43 679.23,1026.39 670.68,1026.39L564.28,1026.39C555.72,1026.39 548.78,1033.33 548.78,1041.89L548.78,1122.05C548.78,1130.6 541.83,1137.55 533.28,1137.55L442.79,1137.55Z" style="fill:rgb(2,248,162);fill-rule:nonzero;"/>
        </g>
    </g>
</svg>
